layouts/icon-pack/spell_reanimate.svg

<?xml version="1.0" encoding="UTF-8"?>
<svg width="1200pt" height="1200pt" version="1.1" viewBox="0 0 1200 1200" xmlns="http://www.w3.org/2000/svg">
 <g fill="#fff">
  <path d="m289.85 977.34-29.695 51.938c-3.0898 5.4023-7.4023 10.008-12.586 13.453l-92.602 61.711c-3.5859 2.4023-5.1797 6.8672-3.9297 11 1.25 4.1328 5.0508 6.9609 9.3672 6.9766h135.14c4.2578 0 8.3359-1.7188 11.305-4.7695 2.9727-3.0469 4.582-7.168 4.4688-11.426l-3.1406-124.22c-0.10547-4.4023-3.1289-8.1953-7.3945-9.2812-4.2695-1.0859-8.7383 0.80078-10.934 4.6172z"/>
  <path d="m763.71 1011.3c-11.109-9.2344-32.812-27.234-55.359-45.961-2.8516-2.375-6.8008-2.9375-10.199-1.4453-3.4023 1.4883-5.668 4.7695-5.8555 8.4766l-6.5625 133.59c-0.21094 4.3164 1.3555 8.5352 4.3359 11.664 2.9805 3.1328 7.1133 4.9062 11.438 4.9062h203.58c3.7031 0.003906 7.0938-2.0781 8.7656-5.3828 1.6758-3.3008 1.3477-7.2656-0.84375-10.25l-46.219-62.812c-5.7148-7.7891-14.254-13.023-23.789-14.578l-61.664-10.125c-6.4922-1.0742-12.578-3.8672-17.625-8.0859z"/>
  <path d="m357.89 1107-8.3438-329.09c-0.50391-20.09-7.5781-39.457-20.133-55.148-24.398-30.469-69.141-84.047-118.38-132.66-4.7695-4.6758-7.9414-10.742-9.0625-17.328-1.1172-6.5898-0.12891-13.359 2.8281-19.352 22.055-44.32 72.656-150.14 89.227-217.97 0.8125-3.4023 2.8125-6.4062 5.6406-8.4688 2.8242-2.0625 6.293-3.0508 9.7852-2.7891 3.4883 0.26563 6.7695 1.7617 9.2539 4.2266 7.0312 7.0312 15.797 15.398 25.477 24.188 8.9375 8.0938 14.043 19.582 14.062 31.641v95.719c0.003906 7.0078 3.0039 13.68 8.2422 18.336 5.2422 4.6602 12.219 6.8555 19.18 6.0391 8.2148-0.97266 15.395-6.0117 19.102-13.406 16.406-32.625 60.539-127.2 70.688-217.62 1.4219-11.734 7.0391-22.555 15.82-30.469 36.07-32.812 130.55-118.99 175.41-160.85 3.2305-3.0117 7.5352-4.5938 11.945-4.3945 4.4102 0.20312 8.5547 2.1758 11.492 5.4727l75.914 85.383c2.0547 2.3125 3.0586 5.3711 2.7812 8.4531-0.28125 3.0781-1.8203 5.9062-4.2578 7.8125l-24.305 19.148c-5.957 4.6602-13.312 7.168-20.875 7.1289-7.5664-0.042968-14.891-2.6367-20.797-7.3633l-17.062-13.828c-5.4258-4.3516-13.309-3.7031-17.953 1.4766-15.75 17.625-51.258 57.352-82.148 91.711-7.543 8.4297-11.715 19.344-11.719 30.656v77.344s106.9-35.156 259.97-176.6c2.9453-2.7305 6.7227-4.3867 10.723-4.707 4-0.31641 7.9922 0.72266 11.332 2.9492l110.7 74.836c2.6445 1.7383 4.4297 4.5117 4.9141 7.6406 0.48047 3.1289-0.38281 6.3125-2.3828 8.7656l-9.1641 11.109c-7.1992 8.7656-17.281 14.688-28.445 16.707-11.164 2.0156-22.68 0-32.492-5.6914-7.0586-4.1641-14.328-7.9688-21.773-11.391-8-3.6875-16.887-5.0039-25.613-3.7891-8.7227 1.2109-16.918 4.9023-23.605 10.633-33.211 28.547-96.422 89.062-118.78 152.6 6.9023 12.168 19.289 20.227 33.211 21.609 0 0 146.7-55.289 228.89-109.52 3.7969-2.5078 8.3398-3.6406 12.871-3.2148 4.5312 0.42578 8.7773 2.3867 12.043 5.5586 19.336 18.75 60.094 55.406 99.914 72.656 3.4961 1.4883 6 4.6484 6.6484 8.3945 0.64844 3.7461-0.64453 7.5664-3.4375 10.145l-26.25 24.07c-4.8086 4.4219-10.816 7.332-17.27 8.3555-6.4531 1.0273-13.066 0.125-19.012-2.5898-19.664-9.0234-52.336-20.93-87.75-20.93 0 0-90.258 59.016-123.52 107.81 0 0 108.94 29.953 191.06 34.148 4.9414 0.24609 9.6172 2.3164 13.125 5.8125 3.5039 3.4922 5.5938 8.1602 5.8594 13.102l5.5781 102.38c0.35547 5.6562-3.5664 10.688-9.1406 11.719l-20.086 3.6562c-8.3398 1.5859-16.973-0.066406-24.145-4.6133-7.168-4.5508-12.336-11.656-14.457-19.879-3.1445-13.688-8.9688-26.613-17.133-38.039 0 0-102.14-11.883-173.44 4.6875 0 0-50.18 65.859-96.375 113.48-19.902 20.496-31.652 47.543-33.047 76.078l-10.242 208.43c-0.19141 4.0508-1.9414 7.875-4.875 10.672-2.9375 2.7969-6.8438 4.3555-10.898 4.3516h-249.54c-4.1172-0.003906-8.0703-1.6172-11.016-4.4922-2.9453-2.8789-4.6523-6.7891-4.7578-10.906z"/>
  <path d="m177.38 881.72 35.156 41.977c2.4648 2.9453 3.4023 6.8789 2.5312 10.617l-14.062 60.727c-1.1836 5.0391-5.4062 8.7891-10.547 9.375l-90.984 10.43c-4.6875 0.52734-9.2656-1.6836-11.766-5.6836s-2.4805-9.082 0.046875-13.066l69.891-113.02c2.0859-3.3047 5.625-5.418 9.5234-5.6836 3.8984-0.26953 7.6914 1.3359 10.211 4.3242z"/>
  <path d="m110.16 715.59 8.3906 53.531c0.5625 3.7578 3.3398 6.8047 7.0312 7.7109l89.062 22.547c3.375 0.91797 6.9805-0.12109 9.3516-2.6953 2.3711-2.5703 3.1094-6.25 1.9219-9.5391l-22.43-65.836c-1.1328-3.4023-4.1094-5.8594-7.6641-6.3281l-75-10.242c-2.9805-0.45703-5.9961 0.54687-8.1094 2.6953-2.1133 2.1484-3.0664 5.1836-2.5547 8.1562z"/>
  <path d="m755.23 905.27 38.016 66.258c2.2383 3.918 6.5742 6.1484 11.062 5.6953l101.09-10.102c4.0117-0.40625 7.5117-2.8906 9.2227-6.5391 1.707-3.6523 1.375-7.9336-0.87891-11.273l-50.156-74.273c-2.582-3.8164-7.2031-5.7109-11.719-4.8047l-88.992 18.047c-3.6211 0.73047-6.668 3.1641-8.1836 6.5352-1.5156 3.3672-1.3125 7.2617 0.54297 10.457z"/>
  <path d="m934.01 1032.8c15.703-13.336 46.242-40.734 61.734-54.703 1.9766-1.7852 4.75-2.3789 7.2812-1.5625 2.5352 0.81641 4.4375 2.9219 5 5.5234l12.234 55.617c0.39453 1.7344 1.3789 3.2734 2.7891 4.3594l88.195 66.984c2.5547 1.9414 3.5859 5.2969 2.5625 8.3398-1.0234 3.043-3.875 5.0898-7.0859 5.0898h-118.85c-5.9414 0-11.484-2.9961-14.742-7.9688l-41.719-63.562c-3.8242-5.832-2.7109-13.598 2.6016-18.117z"/>
  <path d="m971.18 843.49-20.672 29.273c-1.5703 2.2422-1.9492 5.1055-1.0156 7.6758 0.93359 2.5703 3.0625 4.5273 5.7031 5.2383l49.875 14.062c2.2578 0.63281 4.6797 0.28906 6.6719-0.94531 1.9961-1.2305 3.3828-3.2422 3.8281-5.5469l6.0469-31.359c0.78516-4.1133-1.5703-8.1797-5.5312-9.5391l-35.156-11.953c-3.5742-1.2891-7.5703-0.019532-9.75 3.0938z"/>
 </g>
</svg>

<?xml version="1.0" encoding="UTF-8" standalone="no"?>
<!DOCTYPE svg PUBLIC "-//W3C//DTD SVG 1.1//EN" "http://www.w3.org/Graphics/SVG/1.1/DTD/svg11.dtd">
<svg width="100%" height="100%" viewBox="0 0 504 512" version="1.1" xmlns="http://www.w3.org/2000/svg" xmlns:xlink="http://www.w3.org/1999/xlink" xml:space="preserve" xmlns:serif="http://www.serif.com/" style="fill-rule:evenodd;clip-rule:evenodd;stroke-linejoin:round;stroke-miterlimit:2;">
    <g transform="matrix(1,0,0,1,-85.8461,-77.5875)">
        <g transform="matrix(0.489979,0,0,0.489979,43.7833,39.5713)">
            <path d="M289.85,977.34L260.155,1029.28C257.065,1034.68 252.753,1039.29 247.569,1042.73L154.967,1104.44C151.381,1106.84 149.787,1111.31 151.037,1115.44C152.287,1119.58 156.088,1122.4 160.405,1122.42L295.544,1122.42C299.802,1122.42 303.88,1120.7 306.85,1117.65C309.822,1114.6 311.431,1110.48 311.318,1106.22L308.178,982.003C308.072,977.601 305.049,973.808 300.783,972.722C296.514,971.636 292.045,973.523 289.849,977.339L289.85,977.34Z" style="fill:white;fill-rule:nonzero;"/>
            <path d="M763.71,1011.3C752.601,1002.07 730.898,984.066 708.351,965.339C705.499,962.964 701.55,962.401 698.152,963.894C694.75,965.382 692.484,968.663 692.297,972.37L685.734,1105.96C685.523,1110.28 687.09,1114.5 690.07,1117.62C693.05,1120.76 697.183,1122.53 701.508,1122.53L905.088,1122.53C908.791,1122.53 912.182,1120.45 913.854,1117.15C915.529,1113.85 915.201,1109.88 913.01,1106.9L866.791,1044.09C861.076,1036.3 852.537,1031.06 843.002,1029.51L781.338,1019.38C774.846,1018.31 768.76,1015.51 763.713,1011.3L763.71,1011.3Z" style="fill:white;fill-rule:nonzero;"/>
            <path d="M357.89,1107L349.546,777.91C349.042,757.82 341.968,738.453 329.413,722.762C305.015,692.293 260.272,638.715 211.033,590.102C206.264,585.426 203.092,579.36 201.971,572.774C200.854,566.184 201.842,559.415 204.799,553.422C226.854,509.102 277.455,403.282 294.026,335.452C294.838,332.05 296.838,329.046 299.666,326.983C302.491,324.921 305.959,323.932 309.452,324.194C312.94,324.46 316.221,325.956 318.705,328.421C325.737,335.452 334.503,343.819 344.182,352.609C353.12,360.703 358.225,372.191 358.244,384.25L358.244,479.969C358.248,486.977 361.248,493.649 366.487,498.305C371.729,502.965 378.706,505.16 385.667,504.344C393.882,503.371 401.062,498.332 404.769,490.938C421.175,458.313 465.308,363.738 475.457,273.318C476.879,261.584 482.496,250.763 491.277,242.849C527.347,210.037 621.827,123.859 666.687,81.999C669.917,78.987 674.222,77.405 678.632,77.604C683.042,77.807 687.186,79.78 690.124,83.077L766.038,168.46C768.092,170.773 769.096,173.831 768.819,176.913C768.538,179.991 766.999,182.819 764.561,184.726L740.256,203.874C734.299,208.534 726.944,211.042 719.381,211.003C711.815,210.96 704.49,208.366 698.584,203.639L681.522,189.811C676.096,185.46 668.213,186.108 663.569,191.288C647.819,208.913 612.311,248.64 581.421,282.999C573.878,291.429 569.706,302.343 569.702,313.655L569.702,390.999C569.702,390.999 676.602,355.843 829.672,214.399C832.617,211.668 836.395,210.012 840.395,209.692C844.395,209.375 848.387,210.414 851.727,212.641L962.427,287.477C965.072,289.215 966.857,291.989 967.341,295.118C967.822,298.247 966.958,301.43 964.958,303.883L955.794,314.992C948.595,323.758 938.513,329.68 927.349,331.699C916.185,333.715 904.669,331.699 894.857,326.008C887.799,321.844 880.529,318.039 873.084,314.617C865.084,310.929 856.197,309.613 847.471,310.828C838.749,312.039 830.553,315.73 823.866,321.461C790.655,350.008 727.444,410.523 705.086,474.061C711.989,486.229 724.375,494.288 738.297,495.67C738.297,495.67 884.997,440.381 967.187,386.15C970.984,383.642 975.527,382.509 980.058,382.935C984.589,383.361 988.836,385.322 992.101,388.494C1011.44,407.244 1052.19,443.9 1092.02,461.15C1095.51,462.638 1098.02,465.798 1098.66,469.544C1099.31,473.29 1098.02,477.11 1095.23,479.689L1068.98,503.759C1064.17,508.181 1058.16,511.091 1051.71,512.115C1045.25,513.142 1038.64,512.24 1032.69,509.525C1013.03,500.501 980.358,488.595 944.944,488.595C944.944,488.595 854.686,547.611 821.424,596.405C821.424,596.405 930.364,626.358 1012.48,630.553C1017.43,630.799 1022.1,632.869 1025.61,636.365C1029.11,639.857 1031.2,644.525 1031.47,649.467L1037.05,751.847C1037.4,757.503 1033.48,762.535 1027.91,763.566L1007.82,767.222C999.48,768.808 990.847,767.156 983.675,762.609C976.507,758.058 971.339,750.953 969.218,742.73C966.074,729.042 960.249,716.117 952.085,704.691C952.085,704.691 849.945,692.808 778.645,709.379C778.645,709.379 728.465,775.238 682.27,822.859C662.368,843.355 650.618,870.402 649.223,898.937L638.981,1107.37C638.79,1111.42 637.04,1115.24 634.106,1118.04C631.169,1120.84 627.262,1122.39 623.208,1122.39L373.668,1122.39C369.551,1122.39 365.598,1120.77 362.652,1117.9C359.707,1115.02 358,1111.11 357.894,1106.99L357.89,1107Z" style="fill:white;fill-rule:nonzero;"/>
            <path d="M177.38,881.72L212.536,923.697C215.001,926.642 215.938,930.576 215.067,934.314L201.005,995.041C199.822,1000.08 195.599,1003.83 190.458,1004.42L99.474,1014.85C94.787,1015.37 90.209,1013.16 87.708,1009.16C85.208,1005.16 85.228,1000.08 87.755,996.096L157.646,883.076C159.732,879.772 163.271,877.658 167.169,877.393C171.068,877.123 174.861,878.729 177.38,881.717L177.38,881.72Z" style="fill:white;fill-rule:nonzero;"/>
            <path d="M110.16,715.59L118.551,769.121C119.113,772.879 121.89,775.926 125.582,776.832L214.644,799.379C218.019,800.297 221.624,799.258 223.995,796.684C226.367,794.113 227.105,790.434 225.917,787.145L203.487,721.309C202.354,717.906 199.378,715.449 195.823,714.98L120.823,704.738C117.843,704.281 114.827,705.285 112.714,707.434C110.601,709.582 109.647,712.617 110.159,715.59L110.16,715.59Z" style="fill:white;fill-rule:nonzero;"/>
            <path d="M755.23,905.27L793.246,971.528C795.484,975.446 799.82,977.676 804.308,977.223L905.398,967.121C909.41,966.715 912.91,964.231 914.621,960.582C916.328,956.93 915.996,952.649 913.742,949.309L863.586,875.036C861.004,871.22 856.383,869.325 851.867,870.232L762.875,888.279C759.254,889.009 756.207,891.443 754.691,894.814C753.176,898.181 753.379,902.075 755.234,905.271L755.23,905.27Z" style="fill:white;fill-rule:nonzero;"/>
            <path d="M934.01,1032.8C949.713,1019.46 980.252,992.066 995.744,978.097C997.721,976.312 1000.49,975.718 1003.02,976.535C1005.56,977.351 1007.46,979.456 1008.02,982.058L1020.26,1037.67C1020.65,1039.41 1021.64,1040.95 1023.05,1042.03L1111.24,1109.02C1113.8,1110.96 1114.83,1114.32 1113.81,1117.36C1112.78,1120.4 1109.93,1122.45 1106.72,1122.45L987.87,1122.45C981.929,1122.45 976.386,1119.45 973.128,1114.48L931.409,1050.92C927.585,1045.09 928.698,1037.32 934.011,1032.8L934.01,1032.8Z" style="fill:white;fill-rule:nonzero;"/>
            <path d="M971.18,843.49L950.508,872.763C948.938,875.005 948.559,877.869 949.492,880.439C950.426,883.009 952.555,884.966 955.195,885.677L1005.07,899.739C1007.33,900.372 1009.75,900.028 1011.74,898.794C1013.74,897.563 1015.12,895.552 1015.57,893.247L1021.62,861.888C1022.4,857.775 1020.05,853.708 1016.09,852.349L980.93,840.396C977.356,839.107 973.36,840.376 971.18,843.49L971.18,843.49Z" style="fill:white;fill-rule:nonzero;"/>
        </g>
    </g>
</svg>
